communes/121.svg

<?xml version="1.0" encoding="UTF-8"?>
<svg version="1.0" viewBox="0 0 237.45 278.19" xmlns="http://www.w3.org/2000/svg" xmlns:cc="http://creativecommons.org/ns#" xmlns:dc="http://purl.org/dc/elements/1.1/" xmlns:rdf="http://www.w3.org/1999/02/22-rdf-syntax-ns#">
<metadata>
<rdf:RDF>
<cc:Work rdf:about="">
<dc:format>image/svg+xml</dc:format>
<dc:type rdf:resource="http://purl.org/dc/dcmitype/StillImage"/>
</cc:Work>
</rdf:RDF>
</metadata>
<g transform="translate(-220.79 -455.28)" stroke="#000">
<path d="m221.79 456.28 4.2809 179.84c3.0578 128.46 223.83 128.46 226.89 0l4.2809-179.84h-235.45z" fill-rule="evenodd" stroke-width="2"/>
<path d="m298.58 456.28v270.22c26.588 8.0794 56.648 7.9635 83.125-0.375v-269.84h-83.125z" fill="#fdeb00" fill-rule="evenodd" stroke-width="2"/>
<g transform="translate(138.19 321.71)">
<path d="m188.66 280.83 26.518 0.10099-1.3858 10.381c0 1.8489-5.524 2.7328-12.439 2.7328s-12.703-2.0292-12.703-3.8781l0.00936-9.3371z" fill="#296310" fill-rule="evenodd" stroke-linecap="round" stroke-width=".99921"/>
<path transform="matrix(.96227 0 0 1 7.5639 7.5433)" d="m176.84 261.39 51.362 0.52861-1.5199 7.5326c0 3.5258-11.091 6.3873-24.756 6.3873s-24.756-2.8615-24.756-6.3873l-0.32971-8.0612z" fill="#296310" fill-rule="evenodd" stroke-linecap="round" stroke-width="1.0186"/>
<path transform="translate(.49352 -.3524)" d="m226.68 269.45c0 3.5276-11.084 6.3873-24.756 6.3873s-24.756-2.8597-24.756-6.3873 11.084-6.3873 24.756-6.3873 24.756 2.8597 24.756 6.3873z" fill="#296310" fill-rule="evenodd" stroke-linecap="round" stroke-width=".99921"/>
<path d="m186.64 258.45c-0.24919-8.2232 3.563-12.602 6.0378-15.46s7.0014-4.7418 6.9779-8.6058c-0.02352-3.864-1.553-5.3387-1.553-5.3387 4.0626 0.76512 7.3322 3.8209 8.1351 6.5242 2.0903 0.08306 2.9764-0.56193 4.4209-0.36752-0.8462 1.604-2.752 5.6087 0.79956 8.903 3.5516 3.2943 7.7951 6.942 7.5309 13.995-0.2643 7.0554-7.31 14.806-13.856 14.734l-0.0579-0.66882c-3.7293-0.01922-16.964 1.525-18.435-13.716z" fill="#f70000" fill-rule="evenodd" stroke-width="1px"/>
<path d="m206.95 244.47c4.0527 7.5767 12.158 16.299-0.96911 25.99 0.0881-4.1408-1.9162-5.7046-4.2289-9.6911-2.2745-3.9208-0.72683-11.277 2.7311-14.713 1.696 4.5813 2.5109 8.3916-2.7311 14.096" fill="none" stroke-width="1px"/>
<path d="m202.72 272.2c0.59431-8.9418-7.0964-9.0873-7.223-15.481-0.12662-6.3053 9.6477-11.058 10.702-21.274" fill="none" stroke-width="1px"/>
</g>
<g transform="translate(138.19 250.44)">
<path d="m188.66 280.83 26.518 0.10099-1.3858 10.381c0 1.8489-5.524 2.7328-12.439 2.7328s-12.703-2.0292-12.703-3.8781l0.00936-9.3371z" fill="#296310" fill-rule="evenodd" stroke-linecap="round" stroke-width=".99921"/>
<path transform="matrix(.96227 0 0 1 7.5639 7.5433)" d="m176.84 261.39 51.362 0.52861-1.5199 7.5326c0 3.5258-11.091 6.3873-24.756 6.3873s-24.756-2.8615-24.756-6.3873l-0.32971-8.0612z" fill="#296310" fill-rule="evenodd" stroke-linecap="round" stroke-width="1.0186"/>
<path transform="translate(.49352 -.3524)" d="m226.68 269.45c0 3.5276-11.084 6.3873-24.756 6.3873s-24.756-2.8597-24.756-6.3873 11.084-6.3873 24.756-6.3873 24.756 2.8597 24.756 6.3873z" fill="#296310" fill-rule="evenodd" stroke-linecap="round" stroke-width=".99921"/>
<path d="m186.64 258.45c-0.24919-8.2232 3.563-12.602 6.0378-15.46s7.0014-4.7418 6.9779-8.6058c-0.02352-3.864-1.553-5.3387-1.553-5.3387 4.0626 0.76512 7.3322 3.8209 8.1351 6.5242 2.0903 0.08306 2.9764-0.56193 4.4209-0.36752-0.8462 1.604-2.752 5.6087 0.79956 8.903 3.5516 3.2943 7.7951 6.942 7.5309 13.995-0.2643 7.0554-7.31 14.806-13.856 14.734l-0.0579-0.66882c-3.7293-0.01922-16.964 1.525-18.435-13.716z" fill="#f70000" fill-rule="evenodd" stroke-width="1px"/>
<path d="m206.95 244.47c4.0527 7.5767 12.158 16.299-0.96911 25.99 0.0881-4.1408-1.9162-5.7046-4.2289-9.6911-2.2745-3.9208-0.72683-11.277 2.7311-14.713 1.696 4.5813 2.5109 8.3916-2.7311 14.096" fill="none" stroke-width="1px"/>
<path d="m202.72 272.2c0.59431-8.9418-7.0964-9.0873-7.223-15.481-0.12662-6.3053 9.6477-11.058 10.702-21.274" fill="none" stroke-width="1px"/>
</g>
<g transform="translate(138.19 392.98)">
<path d="m188.66 280.83 26.518 0.10099-1.3858 10.381c0 1.8489-5.524 2.7328-12.439 2.7328s-12.703-2.0292-12.703-3.8781l0.00936-9.3371z" fill="#296310" fill-rule="evenodd" stroke-linecap="round" stroke-width=".99921"/>
<path transform="matrix(.96227 0 0 1 7.5639 7.5433)" d="m176.84 261.39 51.362 0.52861-1.5199 7.5326c0 3.5258-11.091 6.3873-24.756 6.3873s-24.756-2.8615-24.756-6.3873l-0.32971-8.0612z" fill="#296310" fill-rule="evenodd" stroke-linecap="round" stroke-width="1.0186"/>
<path transform="translate(.49352 -.3524)" d="m226.68 269.45c0 3.5276-11.084 6.3873-24.756 6.3873s-24.756-2.8597-24.756-6.3873 11.084-6.3873 24.756-6.3873 24.756 2.8597 24.756 6.3873z" fill="#296310" fill-rule="evenodd" stroke-linecap="round" stroke-width=".99921"/>
<path d="m186.64 258.45c-0.24919-8.2232 3.563-12.602 6.0378-15.46s7.0014-4.7418 6.9779-8.6058c-0.02352-3.864-1.553-5.3387-1.553-5.3387 4.0626 0.76512 7.3322 3.8209 8.1351 6.5242 2.0903 0.08306 2.9764-0.56193 4.4209-0.36752-0.8462 1.604-2.752 5.6087 0.79956 8.903 3.5516 3.2943 7.7951 6.942 7.5309 13.995-0.2643 7.0554-7.31 14.806-13.856 14.734l-0.0579-0.66882c-3.7293-0.01922-16.964 1.525-18.435-13.716z" fill="#f70000" fill-rule="evenodd" stroke-width="1px"/>
<path d="m206.95 244.47c4.0527 7.5767 12.158 16.299-0.96911 25.99 0.0881-4.1408-1.9162-5.7046-4.2289-9.6911-2.2745-3.9208-0.72683-11.277 2.7311-14.713 1.696 4.5813 2.5109 8.3916-2.7311 14.096" fill="none" stroke-width="1px"/>
<path d="m202.72 272.2c0.59431-8.9418-7.0964-9.0873-7.223-15.481-0.12662-6.3053 9.6477-11.058 10.702-21.274" fill="none" stroke-width="1px"/>
</g>
</g>
</svg>

<?xml version="1.0" encoding="UTF-8" standalone="no"?>
<svg
   xmlns:dc="http://purl.org/dc/elements/1.1/"
   xmlns:cc="http://creativecommons.org/ns#"
   xmlns:rdf="http://www.w3.org/1999/02/22-rdf-syntax-ns#"
   xmlns:svg="http://www.w3.org/2000/svg"
   xmlns="http://www.w3.org/2000/svg"
   xmlns:sodipodi="http://sodipodi.sourceforge.net/DTD/sodipodi-0.dtd"
   xmlns:inkscape="http://www.inkscape.org/namespaces/inkscape"
   version="1.0"
   width="237.44968"
   height="278.18933"
   id="svg2780"
   sodipodi:docname="121.svg">
  <metadata
     id="metadata30">
    <rdf:RDF>
      <cc:Work
         rdf:about="">
        <dc:format>image/svg+xml</dc:format>
        <dc:type
           rdf:resource="http://purl.org/dc/dcmitype/StillImage" />
      </cc:Work>
    </rdf:RDF>
  </metadata>
  <sodipodi:namedview
     pagecolor="#ffffff"
     bordercolor="#666666"
     borderopacity="1"
     objecttolerance="10"
     gridtolerance="10"
     guidetolerance="10"
     inkscape:pageopacity="0"
     inkscape:pageshadow="2"
     inkscape:window-width="640"
     inkscape:window-height="480"
     id="namedview28" />
  <defs
     id="defs2782" />
  <g
     transform="translate(-220.79368,-455.27521)"
     id="layer1">
    <path
       d="M 221.79368,456.28499 L 226.07458,636.12267 C 229.13236,764.57815 449.90467,764.57815 452.96246,636.12267 L 457.24335,456.28499 L 221.79368,456.28499 z "
       style="fill:#000000;fill-opacity:1;fill-rule:evenodd;stroke:#000000;stroke-width:2;stroke-linecap:butt;stroke-miterlimit:4;stroke-dashoffset:0;stroke-opacity:1"
       id="path3282" />
    <path
       d="M 298.57977,456.27521 L 298.57977,726.49396 C 325.16777,734.57331 355.22782,734.45749 381.70477,726.11896 L 381.70477,456.27521 L 298.57977,456.27521 z "
       style="fill:#fdeb00;fill-opacity:1;fill-rule:evenodd;stroke:#000000;stroke-width:2;stroke-linecap:butt;stroke-miterlimit:4;stroke-dashoffset:0;stroke-opacity:1"
       id="path16986" />
    <g
       transform="translate(138.19183,321.71118)"
       id="g3215">
      <path
         d="M 188.65852,280.82688 L 215.17698,280.92787 L 213.79118,291.3093 C 213.79118,293.1582 208.2672,294.04205 201.35232,294.04205 C 194.43744,294.04205 188.64916,292.01288 188.64916,290.16398 L 188.65852,280.82688 z "
         style="fill:#296310;fill-opacity:1;fill-rule:evenodd;stroke:#000000;stroke-width:0.99921262;stroke-linecap:round;stroke-linejoin:miter;stroke-miterlimit:4;stroke-dashoffset:0;stroke-opacity:1"
         id="path3213" />
      <path
         d="M 176.84173,261.38995 L 228.20423,261.91856 L 226.6843,269.4512 C 226.6843,272.97701 215.59342,275.83854 201.92787,275.83854 C 188.26232,275.83854 177.17144,272.97701 177.17144,269.4512 L 176.84173,261.38995 z "
         transform="matrix(0.9622733,0,0,1,7.5639219,7.5432508)"
         style="fill:#296310;fill-opacity:1;fill-rule:evenodd;stroke:#000000;stroke-width:1.01861179;stroke-linecap:round;stroke-linejoin:miter;stroke-miterlimit:4;stroke-dashoffset:0;stroke-opacity:1"
         id="path3210" />
      <path
         d="M 226.6843,269.4512 C 226.6843,272.97883 215.60047,275.83853 201.92787,275.83853 C 188.25527,275.83853 177.17144,272.97883 177.17144,269.4512 C 177.17144,265.92357 188.25527,263.06387 201.92787,263.06387 C 215.60047,263.06387 226.6843,265.92357 226.6843,269.4512 z "
         transform="translate(0.4935167,-0.3524047)"
         style="opacity:1;fill:#296310;fill-opacity:1;fill-rule:evenodd;stroke:#000000;stroke-width:0.99921262;stroke-linecap:round;stroke-linejoin:miter;stroke-miterlimit:4;stroke-dasharray:none;stroke-dashoffset:0;stroke-opacity:1"
         id="path2239" />
      <path
         d="M 186.6416,258.45011 C 186.39241,250.22691 190.20458,245.84839 192.67936,242.99054 C 195.15414,240.13269 199.68076,238.24872 199.65723,234.3847 C 199.63371,230.52069 198.10424,229.04596 198.10424,229.04596 C 202.16682,229.81108 205.43649,232.86683 206.23933,235.57018 C 208.32966,235.65324 209.21578,235.00825 210.6602,235.20266 C 209.814,236.80669 207.90818,240.81132 211.45976,244.10562 C 215.01133,247.39993 219.25486,251.04761 218.99066,258.10029 C 218.72636,265.15572 211.68066,272.90661 205.13418,272.83462 L 205.07628,272.1658 C 201.34698,272.14658 188.11203,273.69084 186.6416,258.45011 z "
         style="fill:#f70000;fill-opacity:1;fill-rule:evenodd;stroke:#000000;stroke-width:1px;stroke-linecap:butt;stroke-linejoin:miter;stroke-opacity:1"
         id="path2233" />
      <path
         d="M 206.94963,244.47451 C 211.00229,252.05121 219.10759,260.77323 205.98052,270.46436 C 206.06862,266.32361 204.06432,264.75981 201.75166,260.77323 C 199.47714,256.85239 201.02483,249.49629 204.4828,246.06034 C 206.17875,250.6416 206.99368,254.45197 201.75166,260.15652"
         style="fill:none;fill-opacity:0.75;fill-rule:evenodd;stroke:#000000;stroke-width:1px;stroke-linecap:butt;stroke-linejoin:miter;stroke-opacity:1"
         id="path2235" />
      <path
         d="M 202.72164,272.20128 C 203.31595,263.25949 195.62522,263.11399 195.4986,256.72058 C 195.37198,250.41527 205.14633,245.6628 206.20085,235.44615"
         style="fill:none;fill-opacity:0.75;fill-rule:evenodd;stroke:#000000;stroke-width:1px;stroke-linecap:butt;stroke-linejoin:miter;stroke-opacity:1"
         id="path2237" />
    </g>
    <g
       transform="translate(138.19183,250.44349)"
       id="use3223">
      <path
         d="M 188.65852,280.82688 L 215.17698,280.92787 L 213.79118,291.3093 C 213.79118,293.1582 208.2672,294.04205 201.35232,294.04205 C 194.43744,294.04205 188.64916,292.01288 188.64916,290.16398 L 188.65852,280.82688 z "
         style="fill:#296310;fill-opacity:1;fill-rule:evenodd;stroke:#000000;stroke-width:0.99921262;stroke-linecap:round;stroke-linejoin:miter;stroke-miterlimit:4;stroke-dashoffset:0;stroke-opacity:1"
         id="path3265" />
      <path
         d="M 176.84173,261.38995 L 228.20423,261.91856 L 226.6843,269.4512 C 226.6843,272.97701 215.59342,275.83854 201.92787,275.83854 C 188.26232,275.83854 177.17144,272.97701 177.17144,269.4512 L 176.84173,261.38995 z "
         transform="matrix(0.9622733,0,0,1,7.5639219,7.5432508)"
         style="fill:#296310;fill-opacity:1;fill-rule:evenodd;stroke:#000000;stroke-width:1.01861179;stroke-linecap:round;stroke-linejoin:miter;stroke-miterlimit:4;stroke-dashoffset:0;stroke-opacity:1"
         id="path3267" />
      <path
         d="M 226.6843,269.4512 C 226.6843,272.97883 215.60047,275.83853 201.92787,275.83853 C 188.25527,275.83853 177.17144,272.97883 177.17144,269.4512 C 177.17144,265.92357 188.25527,263.06387 201.92787,263.06387 C 215.60047,263.06387 226.6843,265.92357 226.6843,269.4512 z "
         transform="translate(0.4935167,-0.3524047)"
         style="opacity:1;fill:#296310;fill-opacity:1;fill-rule:evenodd;stroke:#000000;stroke-width:0.99921262;stroke-linecap:round;stroke-linejoin:miter;stroke-miterlimit:4;stroke-dasharray:none;stroke-dashoffset:0;stroke-opacity:1"
         id="path3269" />
      <path
         d="M 186.6416,258.45011 C 186.39241,250.22691 190.20458,245.84839 192.67936,242.99054 C 195.15414,240.13269 199.68076,238.24872 199.65723,234.3847 C 199.63371,230.52069 198.10424,229.04596 198.10424,229.04596 C 202.16682,229.81108 205.43649,232.86683 206.23933,235.57018 C 208.32966,235.65324 209.21578,235.00825 210.6602,235.20266 C 209.814,236.80669 207.90818,240.81132 211.45976,244.10562 C 215.01133,247.39993 219.25486,251.04761 218.99066,258.10029 C 218.72636,265.15572 211.68066,272.90661 205.13418,272.83462 L 205.07628,272.1658 C 201.34698,272.14658 188.11203,273.69084 186.6416,258.45011 z "
         style="fill:#f70000;fill-opacity:1;fill-rule:evenodd;stroke:#000000;stroke-width:1px;stroke-linecap:butt;stroke-linejoin:miter;stroke-opacity:1"
         id="path3271" />
      <path
         d="M 206.94963,244.47451 C 211.00229,252.05121 219.10759,260.77323 205.98052,270.46436 C 206.06862,266.32361 204.06432,264.75981 201.75166,260.77323 C 199.47714,256.85239 201.02483,249.49629 204.4828,246.06034 C 206.17875,250.6416 206.99368,254.45197 201.75166,260.15652"
         style="fill:none;fill-opacity:0.75;fill-rule:evenodd;stroke:#000000;stroke-width:1px;stroke-linecap:butt;stroke-linejoin:miter;stroke-opacity:1"
         id="path3273" />
      <path
         d="M 202.72164,272.20128 C 203.31595,263.25949 195.62522,263.11399 195.4986,256.72058 C 195.37198,250.41527 205.14633,245.6628 206.20085,235.44615"
         style="fill:none;fill-opacity:0.75;fill-rule:evenodd;stroke:#000000;stroke-width:1px;stroke-linecap:butt;stroke-linejoin:miter;stroke-opacity:1"
         id="path3275" />
    </g>
    <g
       transform="translate(138.19183,392.97887)"
       id="use3225">
      <path
         d="M 188.65852,280.82688 L 215.17698,280.92787 L 213.79118,291.3093 C 213.79118,293.1582 208.2672,294.04205 201.35232,294.04205 C 194.43744,294.04205 188.64916,292.01288 188.64916,290.16398 L 188.65852,280.82688 z "
         style="fill:#296310;fill-opacity:1;fill-rule:evenodd;stroke:#000000;stroke-width:0.99921262;stroke-linecap:round;stroke-linejoin:miter;stroke-miterlimit:4;stroke-dashoffset:0;stroke-opacity:1"
         id="path3279" />
      <path
         d="M 176.84173,261.38995 L 228.20423,261.91856 L 226.6843,269.4512 C 226.6843,272.97701 215.59342,275.83854 201.92787,275.83854 C 188.26232,275.83854 177.17144,272.97701 177.17144,269.4512 L 176.84173,261.38995 z "
         transform="matrix(0.9622733,0,0,1,7.5639219,7.5432508)"
         style="fill:#296310;fill-opacity:1;fill-rule:evenodd;stroke:#000000;stroke-width:1.01861179;stroke-linecap:round;stroke-linejoin:miter;stroke-miterlimit:4;stroke-dashoffset:0;stroke-opacity:1"
         id="path3281" />
      <path
         d="M 226.6843,269.4512 C 226.6843,272.97883 215.60047,275.83853 201.92787,275.83853 C 188.25527,275.83853 177.17144,272.97883 177.17144,269.4512 C 177.17144,265.92357 188.25527,263.06387 201.92787,263.06387 C 215.60047,263.06387 226.6843,265.92357 226.6843,269.4512 z "
         transform="translate(0.4935167,-0.3524047)"
         style="opacity:1;fill:#296310;fill-opacity:1;fill-rule:evenodd;stroke:#000000;stroke-width:0.99921262;stroke-linecap:round;stroke-linejoin:miter;stroke-miterlimit:4;stroke-dasharray:none;stroke-dashoffset:0;stroke-opacity:1"
         id="path3283" />
      <path
         d="M 186.6416,258.45011 C 186.39241,250.22691 190.20458,245.84839 192.67936,242.99054 C 195.15414,240.13269 199.68076,238.24872 199.65723,234.3847 C 199.63371,230.52069 198.10424,229.04596 198.10424,229.04596 C 202.16682,229.81108 205.43649,232.86683 206.23933,235.57018 C 208.32966,235.65324 209.21578,235.00825 210.6602,235.20266 C 209.814,236.80669 207.90818,240.81132 211.45976,244.10562 C 215.01133,247.39993 219.25486,251.04761 218.99066,258.10029 C 218.72636,265.15572 211.68066,272.90661 205.13418,272.83462 L 205.07628,272.1658 C 201.34698,272.14658 188.11203,273.69084 186.6416,258.45011 z "
         style="fill:#f70000;fill-opacity:1;fill-rule:evenodd;stroke:#000000;stroke-width:1px;stroke-linecap:butt;stroke-linejoin:miter;stroke-opacity:1"
         id="path3285" />
      <path
         d="M 206.94963,244.47451 C 211.00229,252.05121 219.10759,260.77323 205.98052,270.46436 C 206.06862,266.32361 204.06432,264.75981 201.75166,260.77323 C 199.47714,256.85239 201.02483,249.49629 204.4828,246.06034 C 206.17875,250.6416 206.99368,254.45197 201.75166,260.15652"
         style="fill:none;fill-opacity:0.75;fill-rule:evenodd;stroke:#000000;stroke-width:1px;stroke-linecap:butt;stroke-linejoin:miter;stroke-opacity:1"
         id="path3287" />
      <path
         d="M 202.72164,272.20128 C 203.31595,263.25949 195.62522,263.11399 195.4986,256.72058 C 195.37198,250.41527 205.14633,245.6628 206.20085,235.44615"
         style="fill:none;fill-opacity:0.75;fill-rule:evenodd;stroke:#000000;stroke-width:1px;stroke-linecap:butt;stroke-linejoin:miter;stroke-opacity:1"
         id="path3289" />
    </g>
  </g>
</svg>
